src/res/outlook.svg

<svg xmlns="http://www.w3.org/2000/svg" viewBox="0 0 30 30" fill="#3f3f3f"><path d="M29.1 6.7H16.9V2c0-.3-.1-.5-.3-.7-.3-.2-.6-.2-.8-.2L.8 3.9c-.5.1-.8.5-.8.9v20.5c0 .4.3.8.8.9l15 2.8h.2c.2 0 .4-.1.6-.2.2-.2.3-.4.3-.7v-4.7h12.2c.5 0 .9-.4.9-.9V7.6c0-.5-.4-.9-.9-.9zM8.4 21.5c-2.6 0-4.7-2.5-4.7-5.6s2.1-5.6 4.7-5.6 4.7 2.5 4.7 5.6-2.1 5.6-4.7 5.6zm8.5-12.9h9.4l-5.8 4.5-3.7-2.3.1-2.2zm11.2 12.9H16.9v-8.7l3.2 2.1a.9.9 0 0 0 .5.1c.2 0 .4-.1.6-.2l6.9-5.4v12.1z"/><ellipse cx="8.4" cy="15.9" rx="2.8" ry="3.7"/></svg>

<?xml version="1.0" encoding="utf-8"?>
<!-- Generator: Adobe Illustrator 25.1.0, SVG Export Plug-In . SVG Version: 6.00 Build 0)  -->
<svg version="1.1" id="Capa_1" xmlns="http://www.w3.org/2000/svg" xmlns:xlink="http://www.w3.org/1999/xlink" x="0px" y="0px"
	 viewBox="0 0 30 30" style="enable-background:new 0 0 30 30;" xml:space="preserve">
<style type="text/css">
	.st0{fill:#3F3F3F;}
</style>
<path class="st0" d="M29.1,6.7H16.9V2c0-0.3-0.1-0.5-0.3-0.7c-0.3-0.2-0.6-0.2-0.8-0.2l-15,2.8C0.3,4,0,4.4,0,4.8v20.5
	c0,0.4,0.3,0.8,0.8,0.9l15,2.8H16c0.2,0,0.4-0.1,0.6-0.2c0.2-0.2,0.3-0.4,0.3-0.7v-4.7h12.2c0.5,0,0.9-0.4,0.9-0.9V7.6
	C30,7.1,29.6,6.7,29.1,6.7z M8.4,21.5c-2.6,0-4.7-2.5-4.7-5.6s2.1-5.6,4.7-5.6s4.7,2.5,4.7,5.6S11,21.5,8.4,21.5z M16.9,8.6h9.4
	l-5.8,4.5l-3.7-2.3L16.9,8.6z M28.1,21.5H16.9v-8.7l3.2,2.1c0.2,0.1,0.3,0.1,0.5,0.1s0.4-0.1,0.6-0.2l6.9-5.4V21.5z"/>
<ellipse class="st0" cx="8.4" cy="15.9" rx="2.8" ry="3.7"/>
</svg>
